public/img/icon-eye.svg

<svg fill="none" height="25" viewBox="0 0 24 25" width="24" xmlns="http://www.w3.org/2000/svg"><path d="m21.92 12.1c-2.02-4.69-5.82-7.6-9.92-7.6-4.09999 0-7.89999 2.91-9.91999 7.6-.05507.1262-.08349.2623-.08349.4s.02842.2738.08349.4c2.02 4.69 5.82 7.6 9.91999 7.6 4.1 0 7.9-2.91 9.92-7.6.0551-.1262.0835-.2623.0835-.4s-.0284-.2738-.0835-.4zm-9.92 6.4c-3.17999 0-6.16999-2.29-7.89999-6 1.73-3.71 4.72-6 7.89999-6 3.18 0 6.17 2.29 7.9 6-1.73 3.71-4.72 6-7.9 6zm0-10c-.7911 0-1.5645.2346-2.22227.67412-.6578.43953-1.17049 1.06428-1.47324 1.79518s-.38197 1.5351-.22763 2.3111c.15434.7759.53531 1.4886 1.09472 2.048s1.27212.9404 2.04802 1.0947c.776.1544 1.5802.0752 2.3111-.2276.7309-.3027 1.3557-.8154 1.7952-1.4732s.6741-1.4312.6741-2.2223c0-1.0609-.4214-2.0783-1.1716-2.82843-.7501-.75014-1.7675-1.17157-2.8284-1.17157zm0 6c-.3956 0-.7822-.1173-1.1111-.3371-.3289-.2197-.5853-.5321-.7367-.8975-.1513-.3655-.19094-.7676-.1138-1.1556.0772-.3879.2677-.7443.5474-1.024s.6361-.4702 1.024-.5474c.388-.0771.7901-.0375 1.1556.1138.3654.1514.6778.4078.8975.7367.2198.3289.3371.7155.3371 1.1111 0 .5304-.2107 1.0391-.5858 1.4142s-.8838.5858-1.4142.5858z" fill="#80818c"/></svg>

<svg width="24" height="25" viewBox="0 0 24 25" fill="none" xmlns="http://www.w3.org/2000/svg">
<path d="M21.92 12.1C19.9 7.41 16.1 4.5 12 4.5C7.90001 4.5 4.10001 7.41 2.08001 12.1C2.02494 12.2262 1.99652 12.3623 1.99652 12.5C1.99652 12.6377 2.02494 12.7738 2.08001 12.9C4.10001 17.59 7.90001 20.5 12 20.5C16.1 20.5 19.9 17.59 21.92 12.9C21.9751 12.7738 22.0035 12.6377 22.0035 12.5C22.0035 12.3623 21.9751 12.2262 21.92 12.1ZM12 18.5C8.82001 18.5 5.83001 16.21 4.10001 12.5C5.83001 8.79 8.82001 6.5 12 6.5C15.18 6.5 18.17 8.79 19.9 12.5C18.17 16.21 15.18 18.5 12 18.5ZM12 8.5C11.2089 8.5 10.4355 8.7346 9.77773 9.17412C9.11993 9.61365 8.60724 10.2384 8.30449 10.9693C8.00174 11.7002 7.92252 12.5044 8.07686 13.2804C8.2312 14.0563 8.61217 14.769 9.17158 15.3284C9.73099 15.8878 10.4437 16.2688 11.2196 16.4231C11.9956 16.5775 12.7998 16.4983 13.5307 16.1955C14.2616 15.8928 14.8864 15.3801 15.3259 14.7223C15.7654 14.0645 16 13.2911 16 12.5C16 11.4391 15.5786 10.4217 14.8284 9.67157C14.0783 8.92143 13.0609 8.5 12 8.5ZM12 14.5C11.6044 14.5 11.2178 14.3827 10.8889 14.1629C10.56 13.9432 10.3036 13.6308 10.1522 13.2654C10.0009 12.8999 9.96126 12.4978 10.0384 12.1098C10.1156 11.7219 10.3061 11.3655 10.5858 11.0858C10.8655 10.8061 11.2219 10.6156 11.6098 10.5384C11.9978 10.4613 12.3999 10.5009 12.7654 10.6522C13.1308 10.8036 13.4432 11.06 13.6629 11.3889C13.8827 11.7178 14 12.1044 14 12.5C14 13.0304 13.7893 13.5391 13.4142 13.9142C13.0391 14.2893 12.5304 14.5 12 14.5Z" fill="#80818C"/>
</svg>
